!!!OTL: MEIN SCHATZ HAT MICH VERLASSEN
!!!ARE: Europa, Mitteleuropa, Deutschland, Hessen, Dillenburg; Wetterau
!!!SCT: E0732
!!!YEM: Copyright 1995, estate of Helmut Schaffrath.
**kern
*ICvox
*Ivox
*M6/8
*k[f#]
*G:
{8d
=1
4b
8b
8b
8cc
8b
=2
4a
8e
4a}
{8g
=3
8f#
8ee
8dd
8cc
8a
8dd
=4
4.b
4r}
{16g
16b
=5
4dd
8dd
8dd
8ee
8dd
=6
4dd
8cc
4a}
{8d
=7
4dd
8dd
8dd
8ee
8dd
=8
4dd
8cc
4a}
{8a
=9
4b
8b
8cc
8a
8ee
=10
4.dd
4r}
{8b
=11
8dd
8cc
8b
8a
8e
8f#
=12
4.g
4r}
==
!!!AGN: Liebes - Lied, Leid, Klage
!!!ONB: ESAC (Essen Associative Code) Database: ERK2
!!!AMT: compound duple
!!!AIN: vox
!!!EED: Helmut Schaffrath
!!!EEV: 1.0
*-
